!!!COM: Akar, John Joseph
!!!CDT: 1927-1975
!!!OTL: National Anthem, Sierra Leone
!!!ENC: Davis, Matthew J.
!!Vocal Line Only
**kern
*clefG2
*k[f#]
*G:
*M2/2
=1-
4g
8g
8g
8f#
8e
4d
=2
4g
8a
8a
2b
=3
4cc
8cc
8cc
8b
8a
4g
=4
4g
8f#
8g
2a
=5
4g
8g
8g
8f#
8e
4d
=6
4dd
8dd
8ee
2dd
=7
4g
8a
8b
8cc
8b
8a
8g
=8
4f#
8e
8f#
4g
8r
8a
=9
4a
8a
8a
4a
8a
8a
=10
4b
8b
8b
4.a
8a
=11
4a
8a
8a
4a
8a
8g
=12
4f#
8e
8e
2d
=13
4g
8g
8g
8f#
8e
4d
=14
4dd
8dd
8ee
2dd
=15
4g
8a
8b
8cc
8b
8a
8g
=16
4f#
8e
8f#
2g
==|!
*-
